X: 29258
T: New May Moon, The
R: jig
M: 6/8
K: Gmajor
|:G|c2 c c2 G|[F2A2] [EG] [E2G2] G|[G2c2] c [Bd][Ac][Bd]|[G2e2] [Ec] [E2c2] e|
[A2f2] [Af] [G2e2] [Ge]|dec B2 A/G/|[FA][EG][DF] [CE][DF][EG]|[F2A2] [EG] [E2G2]:|
|:A/B/|c2 G c2 G|A2 G G2 G|ccc dcd|[G2e2] [Ec] [E2c2] d/e/|
[A3/2f3/2]f/f [G2e2] e|ded B2 A/G/|[FA][EG][DF] [CE][DF][EG]|[F2A2] [EG] [E2G2]:|

